static/Icons/arrow-circle-right.svg

<svg fill="none" height="24" viewBox="0 0 24 24" width="24" xmlns="http://www.w3.org/2000/svg"><g fill="#292d32"><path d="m12 22c5.5228 0 10-4.4772 10-10 0-5.52285-4.4772-10-10-10-5.52285 0-10 4.47715-10 10 0 5.5228 4.47715 10 10 10z" opacity=".4"/><path d="m10.7397 16.2802c-.19 0-.38-.07-.53-.22-.29001-.29-.29001-.77 0-1.06l3-3-3-3.00004c-.29001-.29-.29001-.77 0-1.06.29-.29.77-.29 1.06 0l3.53 3.53004c.29.29.29.77 0 1.06l-3.53 3.53c-.15.15-.34.22-.53.22z"/></g></svg>

<svg width="24" height="24" viewBox="0 0 24 24" fill="none" xmlns="http://www.w3.org/2000/svg">
<path opacity="0.4" d="M12 22C17.5228 22 22 17.5228 22 12C22 6.47715 17.5228 2 12 2C6.47715 2 2 6.47715 2 12C2 17.5228 6.47715 22 12 22Z" fill="#292D32"/>
<path d="M10.7397 16.2802C10.5497 16.2802 10.3597 16.2102 10.2097 16.0602C9.91969 15.7702 9.91969 15.2902 10.2097 15.0002L13.2097 12.0002L10.2097 9.00016C9.91969 8.71016 9.91969 8.23016 10.2097 7.94016C10.4997 7.65016 10.9797 7.65016 11.2697 7.94016L14.7997 11.4702C15.0897 11.7602 15.0897 12.2402 14.7997 12.5302L11.2697 16.0602C11.1197 16.2102 10.9297 16.2802 10.7397 16.2802Z" fill="#292D32"/>
</svg>
